packages/icons/src/svg/Favorite.svg

<svg width="20" height="20" viewBox="0 0 20 20" fill="none" xmlns="http://www.w3.org/2000/svg">
<path fill-rule="evenodd" clip-rule="evenodd" d="M10 3.90449L8.30061 7.34943C8.20168 7.5491 8.05582 7.72182 7.87554 7.85278C7.69525 7.98374 7.4859 8.06904 7.26543 8.10138L3.46267 8.65796L6.21005 11.3431C6.21018 11.3432 6.20992 11.343 6.21005 11.3431C6.37003 11.499 6.48998 11.6919 6.55878 11.9044C6.6275 12.1167 6.64348 12.3425 6.60534 12.5624C6.60528 12.5628 6.60521 12.5632 6.60514 12.5636L5.95599 16.3534L9.3594 14.563C9.5569 14.4592 9.77687 14.4048 10 14.4048C10.2231 14.4048 10.4429 14.4591 10.6404 14.5629L14.0349 16.3477L13.3857 12.5579C13.3856 12.5574 13.3856 12.5569 13.3855 12.5565C13.3474 12.3367 13.3634 12.1109 13.4321 11.8987C13.5009 11.6862 13.6204 11.4936 13.7804 11.3378C13.7805 11.3376 13.7803 11.3379 13.7804 11.3378L16.5322 8.65463L12.7353 8.10149C12.5148 8.06915 12.3048 7.98374 12.1245 7.85278C11.9442 7.72182 11.7983 7.54911 11.6994 7.34943L10 3.90449ZM10.5623 3.34904L11.2344 3.01626C11.1205 2.78619 10.9446 2.59254 10.7265 2.45714C10.5083 2.32175 10.2567 2.25 10 2.25C9.74328 2.25 9.49166 2.32175 9.27355 2.45714C9.05543 2.59254 8.87949 2.78619 8.76558 3.01626L6.98466 6.6265L2.99539 7.21037L2.99209 7.21086C2.73857 7.24912 2.50078 7.35743 2.30552 7.52359C2.11027 7.68974 1.9653 7.90714 1.88697 8.15127C1.80864 8.39539 1.80006 8.65655 1.8622 8.90529C1.92422 9.15357 2.05423 9.37963 2.23762 9.55808C2.23796 9.55842 2.2383 9.55875 2.23865 9.55909L5.11621 12.3715L4.43615 16.3417C4.43605 16.3422 4.43594 16.3428 4.43584 16.3434C4.39159 16.5975 4.41961 16.8589 4.51674 17.0979C4.6141 17.3374 4.77694 17.5446 4.98662 17.6958C5.1963 17.8471 5.44434 17.9362 5.70233 17.953C5.95874 17.9697 6.21467 17.9142 6.44115 17.793L10 15.9209L13.5498 17.7874C13.7763 17.9085 14.0322 17.964 14.2885 17.9473C14.5465 17.9305 14.7946 17.8414 15.0042 17.6901C15.2139 17.5389 15.3768 17.3317 15.4741 17.0922C15.5712 16.8532 15.5993 16.5918 15.555 16.3378C15.5549 16.3372 15.5548 16.3365 15.5547 16.3359L14.8747 12.3658L17.7568 9.55566C17.7571 9.55536 17.7574 9.55505 17.7577 9.55475C17.9412 9.37628 18.0712 9.15018 18.1332 8.90186C18.1954 8.65312 18.1868 8.39196 18.1085 8.14784C18.0301 7.90371 17.8852 7.68632 17.6899 7.52016C17.4946 7.354 17.2569 7.24569 17.0033 7.20743L13.0153 6.62645L11.2349 3.01724L10.5623 3.34904Z" fill="currentColor"/>
</svg>

<svg xmlns="http://www.w3.org/2000/svg" width="20" height="20" fill="currentColor" viewBox="0 0 20 20">
  <path fill-rule="evenodd" d="M11.234 3.016a1.379 1.379 0 0 0-2.47 0l-1.78 3.61-3.99.584h-.003a1.376 1.376 0 0 0-.754 2.348v.001l2.878 2.813-.68 3.97v.001a1.376 1.376 0 0 0 2.005 1.45L10 15.921l3.549 1.866a1.377 1.377 0 0 0 2.005-1.45v-.001l-.68-3.97 2.882-2.81v-.001a1.377 1.377 0 0 0-.753-2.348l-3.989-.58-1.78-3.61Zm-1.235.888L8.3 7.35a1.378 1.378 0 0 1-1.034.752l-3.803.557 2.747 2.685a1.376 1.376 0 0 1 .395 1.22l-.649 3.79 3.404-1.79a1.377 1.377 0 0 1 1.28 0l3.395 1.785-.65-3.79v-.002a1.374 1.374 0 0 1 .396-1.218l2.751-2.683-3.796-.554a1.382 1.382 0 0 1-1.037-.752L10 3.904Z" clip-rule="evenodd"/>
</svg>
